!!!OTL: Sangeslohn O Christe Morgensterne,
!!!ARE: Europa, Mitteleuropa, Deutschland
!!!YOR: 6, S. 60
!!    1586 gedruckt
!!!SCT: Q0124B
!!!YEM: Copyright 1995, estate of Helmut Schaffrath.
**kern
*ICvox
*Ivox
*M6/4
*k[b-]
*F:
{4f
=1
2f
4f
2f
4d
=2
2c
4g
2g}
{4g
=3
2a
2b-
4g
4g
=4
[2.f
2f]}
{4a
=5
2b-
4b-
2b-
4a
=6
2.g
2g}
{4g
=7
2a
4cc
4.cc
8b-
4a
=8
[2.g
2g]}
{4g
=9
2a
2b-
4g
4g
=10
[2.f
2f]}
==
!!!AGN: geistlich
!! Tonangabe zur Ballade "Sangeslohn" - moegliche Melodie (??) .
!!    Taktart von "3er" in 6/4 geaendert. Dabei Notenwerte halbiert und
!!    zwei Notenwerte rhythmisch korrigiert.
!!!ONB: ESAC (Essen Associative Code) Database: BALLADE
!!!AMT: compound duple
!!!AIN: vox
!!!EED: Helmut Schaffrath
!!!EEV: 1.0
*-
